Numix/16/status/indicator-keyboard-Pt-2.svg

<?xml version="1.0" encoding="UTF-8" standalone="no"?>
<svg
   xmlns:dc="http://purl.org/dc/elements/1.1/"
   xmlns:cc="http://creativecommons.org/ns#"
   xmlns:rdf="http://www.w3.org/1999/02/22-rdf-syntax-ns#"
   xmlns:svg="http://www.w3.org/2000/svg"
   xmlns="http://www.w3.org/2000/svg"
   xmlns:sodipodi="http://sodipodi.sourceforge.net/DTD/sodipodi-0.dtd"
   xmlns:inkscape="http://www.inkscape.org/namespaces/inkscape"
   viewBox="0 0 16 16"
   id="svg2"
   version="1.1"
   inkscape:version="0.91 r13725"
   sodipodi:docname="indicator-keyboard-Pt-2.svg">
  <metadata
     id="metadata14">
    <rdf:RDF>
      <cc:Work
         rdf:about="">
        <dc:format>image/svg+xml</dc:format>
        <dc:type
           rdf:resource="http://purl.org/dc/dcmitype/StillImage" />
      </cc:Work>
    </rdf:RDF>
  </metadata>
  <defs
     id="defs12" />
  <sodipodi:namedview
     pagecolor="#ffffff"
     bordercolor="#666666"
     borderopacity="1"
     objecttolerance="10"
     gridtolerance="10"
     guidetolerance="10"
     inkscape:pageopacity="0"
     inkscape:pageshadow="2"
     inkscape:window-width="640"
     inkscape:window-height="480"
     id="namedview10"
     showgrid="false"
     inkscape:zoom="14.75"
     inkscape:cx="8"
     inkscape:cy="8"
     inkscape:window-x="65"
     inkscape:window-y="24"
     inkscape:window-maximized="0"
     inkscape:current-layer="svg2" />
  <path
     style="fill:#ececec;fill-opacity:1"
     d="M 1.5996094 0 C 0.71320937 2.9605947e-16 0 0.71320937 0 1.5996094 L 0 14.400391 C 2.9605947e-16 15.286791 0.71320937 16 1.5996094 16 L 14.400391 16 C 15.286791 16 16 15.286791 16 14.400391 L 16 1.5996094 C 16 0.71320937 15.286791 0 14.400391 0 L 1.5996094 0 z M 4.171875 4.8046875 C 5.053875 4.8046875 5.7125312 4.9725938 6.1445312 5.3085938 C 6.5765312 5.6445937 6.7910156 6.1222344 6.7910156 6.7402344 C 6.7910156 7.0942344 6.7295156 7.3964375 6.6035156 7.6484375 C 6.4775156 7.8944375 6.2965 8.0959531 6.0625 8.2519531 C 5.8285 8.4019531 5.5412187 8.5139375 5.1992188 8.5859375 C 4.8632187 8.6519375 4.4826406 8.6835937 4.0566406 8.6835938 L 3.2089844 8.6835938 L 3.2089844 11.095703 L 2.5976562 11.095703 L 2.5976562 4.9765625 C 2.8136562 4.9165625 3.0655156 4.8736094 3.3535156 4.8496094 C 3.6475156 4.8196094 3.919875 4.8046875 4.171875 4.8046875 z M 8.4375 4.9667969 L 8.4375 6.4433594 L 10.291016 6.4433594 L 10.291016 6.9375 L 8.4375 6.9375 L 8.4375 9.4121094 C 8.4375 9.6761094 8.458 9.8925467 8.5 10.060547 C 8.548 10.222547 8.6132656 10.349453 8.6972656 10.439453 C 8.7812656 10.529453 8.8839063 10.589141 9.0039062 10.619141 C 9.1239063 10.649141 9.2563906 10.664062 9.4003906 10.664062 C 9.6463906 10.664062 9.8441406 10.636031 9.9941406 10.582031 C 10.144141 10.522031 10.261703 10.469875 10.345703 10.421875 L 10.488281 10.90625 C 10.404281 10.96025 10.258828 11.023703 10.048828 11.095703 C 9.8388279 11.161703 9.6092812 11.195313 9.3632812 11.195312 C 9.0752813 11.195312 8.8327656 11.159891 8.6347656 11.087891 C 8.4427656 11.009891 8.2860156 10.894141 8.1660156 10.744141 C 8.0520156 10.588141 7.9718281 10.397922 7.9238281 10.169922 C 7.8758281 9.9419217 7.8515625 9.671375 7.8515625 9.359375 L 7.8515625 5.0742188 L 8.4375 4.9667969 z M 4.1992188 5.3359375 C 3.9712187 5.3359375 3.7772344 5.3452812 3.6152344 5.3632812 C 3.4592344 5.3752813 3.3229844 5.3864375 3.2089844 5.3984375 L 3.2089844 8.1523438 L 3.984375 8.1523438 C 4.314375 8.1523438 4.611 8.1356094 4.875 8.0996094 C 5.145 8.0576094 5.3725938 7.9848125 5.5585938 7.8828125 C 5.7505937 7.7748125 5.898 7.6274062 6 7.4414062 C 6.102 7.2554062 6.1523437 7.0184688 6.1523438 6.7304688 C 6.1523438 6.4544687 6.0964219 6.226875 5.9824219 6.046875 C 5.8744219 5.866875 5.7270156 5.7250469 5.5410156 5.6230469 C 5.3610156 5.5150469 5.1539219 5.4404375 4.9199219 5.3984375 C 4.6859219 5.3564375 4.4452188 5.3359375 4.1992188 5.3359375 z M 12.074219 8.7539062 C 12.468119 8.7539062 12.763991 8.851875 12.962891 9.046875 C 13.161791 9.237975 13.261719 9.5044563 13.261719 9.8476562 C 13.261719 9.9997563 13.234287 10.14475 13.179688 10.28125 C 13.125087 10.41385 13.050631 10.543169 12.957031 10.667969 C 12.867331 10.792769 12.765437 10.912297 12.648438 11.029297 C 12.531437 11.146297 12.411916 11.263859 12.291016 11.380859 C 12.189616 11.478359 12.089687 11.578288 11.992188 11.679688 C 11.898587 11.777188 11.812375 11.877116 11.734375 11.978516 C 11.660275 12.076016 11.601487 12.172031 11.554688 12.269531 C 11.511787 12.363131 11.490234 12.457181 11.490234 12.550781 L 11.490234 12.5625 L 13.402344 12.5625 L 13.402344 12.896484 L 11.068359 12.896484 C 11.068359 12.888684 11.066433 12.874969 11.0625 12.855469 L 11.0625 12.755859 C 11.0625 12.572559 11.095809 12.402094 11.162109 12.246094 C 11.228409 12.086194 11.312662 11.937275 11.414062 11.796875 C 11.519362 11.656475 11.633013 11.525197 11.757812 11.404297 C 11.886512 11.283397 12.009953 11.165834 12.126953 11.052734 C 12.224453 10.959134 12.316544 10.869003 12.402344 10.783203 C 12.492044 10.693503 12.570419 10.603366 12.636719 10.509766 C 12.703019 10.416166 12.753969 10.316237 12.792969 10.210938 C 12.831969 10.105638 12.851562 9.9900344 12.851562 9.8652344 C 12.851562 9.5922344 12.779059 9.39825 12.630859 9.28125 C 12.486559 9.16035 12.302378 9.0996094 12.080078 9.0996094 C 11.955278 9.0996094 11.843594 9.1152844 11.746094 9.1464844 C 11.648594 9.1776844 11.564334 9.2149125 11.490234 9.2578125 C 11.420034 9.2968125 11.359294 9.3379594 11.308594 9.3808594 C 11.257894 9.4237594 11.220666 9.4570688 11.197266 9.4804688 L 10.998047 9.2167969 C 11.021447 9.1894969 11.062594 9.1503094 11.121094 9.0996094 C 11.183494 9.0450094 11.259909 8.9921062 11.349609 8.9414062 C 11.443209 8.8907063 11.549022 8.8476 11.669922 8.8125 C 11.790822 8.7735 11.926019 8.7539063 12.074219 8.7539062 z "
     id="path4" />
</svg>

<svg xmlns="http://www.w3.org/2000/svg" viewBox="0 0 16 16">
 <path d="m 1.6 0 c -0.886 0 -1.6 0.713 -1.6 1.6 l 0 12.801 c 0 0.886 0.713 1.6 1.6 1.6 l 12.801 0 c 0.886 0 1.6 -0.713 1.6 -1.6 l 0 -12.801 c 0 -0.886 -0.713 -1.6 -1.6 -1.6 l -12.801 0 z m 2.572 4.805 c 0.882 0 1.541 0.168 1.973 0.504 c 0.432 0.336 0.646 0.814 0.646 1.432 c 0 0.354 -0.061 0.656 -0.188 0.908 c -0.126 0.246 -0.307 0.448 -0.541 0.604 c -0.234 0.15 -0.521 0.262 -0.863 0.334 c -0.336 0.066 -0.717 0.098 -1.143 0.098 l -0.848 0 l 0 2.412 l -0.611 0 l 0 -6.119 c 0.216 -0.06 0.468 -0.103 0.756 -0.127 c 0.294 -0.03 0.566 -0.045 0.818 -0.045 z m 4.266 0.162 l 0 1.477 l 1.854 0 l 0 0.494 l -1.854 0 l 0 2.475 c 0 0.264 0.021 0.48 0.063 0.648 c 0.048 0.162 0.113 0.289 0.197 0.379 c 0.084 0.09 0.187 0.15 0.307 0.18 c 0.12 0.03 0.252 0.045 0.396 0.045 c 0.246 0 0.444 -0.028 0.594 -0.082 c 0.15 -0.06 0.268 -0.112 0.352 -0.16 l 0.143 0.484 c -0.084 0.054 -0.229 0.117 -0.439 0.189 c -0.21 0.066 -0.44 0.1 -0.686 0.1 c -0.288 0 -0.531 -0.035 -0.729 -0.107 c -0.192 -0.078 -0.349 -0.194 -0.469 -0.344 c -0.114 -0.156 -0.194 -0.346 -0.242 -0.574 c -0.048 -0.228 -0.072 -0.499 -0.072 -0.811 l 0 -4.285 l 0.586 -0.107 z m -4.238 0.369 c -0.228 0 -0.422 0.009 -0.584 0.027 c -0.156 0.012 -0.292 0.023 -0.406 0.035 l 0 2.754 l 0.775 0 c 0.33 0 0.627 -0.017 0.891 -0.053 c 0.27 -0.042 0.498 -0.115 0.684 -0.217 c 0.192 -0.108 0.339 -0.255 0.441 -0.441 c 0.102 -0.186 0.152 -0.423 0.152 -0.711 c 0 -0.276 -0.056 -0.504 -0.17 -0.684 c -0.108 -0.18 -0.255 -0.322 -0.441 -0.424 c -0.18 -0.108 -0.387 -0.183 -0.621 -0.225 c -0.234 -0.042 -0.475 -0.063 -0.721 -0.063 z m 7.875 3.418 c 0.394 0 0.69 0.098 0.889 0.293 c 0.199 0.191 0.299 0.458 0.299 0.801 c 0 0.152 -0.027 0.297 -0.082 0.434 c -0.055 0.133 -0.129 0.262 -0.223 0.387 c -0.09 0.125 -0.192 0.244 -0.309 0.361 c -0.117 0.117 -0.237 0.235 -0.357 0.352 c -0.101 0.098 -0.201 0.197 -0.299 0.299 c -0.094 0.098 -0.18 0.197 -0.258 0.299 c -0.074 0.097 -0.133 0.194 -0.18 0.291 c -0.043 0.094 -0.064 0.188 -0.064 0.281 l 0 0.012 l 1.912 0 l 0 0.334 l -2.334 0 c 0 -0.008 -0.002 -0.022 -0.006 -0.041 l 0 -0.1 c 0 -0.183 0.033 -0.354 0.1 -0.51 c 0.066 -0.16 0.151 -0.309 0.252 -0.449 c 0.105 -0.14 0.219 -0.272 0.344 -0.393 c 0.129 -0.121 0.252 -0.238 0.369 -0.352 c 0.098 -0.094 0.19 -0.184 0.275 -0.27 c 0.09 -0.09 0.168 -0.18 0.234 -0.273 c 0.066 -0.094 0.117 -0.194 0.156 -0.299 c 0.039 -0.105 0.059 -0.221 0.059 -0.346 c 0 -0.273 -0.073 -0.467 -0.221 -0.584 c -0.144 -0.121 -0.328 -0.182 -0.551 -0.182 c -0.125 0 -0.236 0.016 -0.334 0.047 c -0.098 0.031 -0.182 0.068 -0.256 0.111 c -0.07 0.039 -0.131 0.08 -0.182 0.123 c -0.051 0.043 -0.088 0.076 -0.111 0.1 l -0.199 -0.264 c 0.023 -0.027 0.065 -0.066 0.123 -0.117 c 0.062 -0.055 0.139 -0.108 0.229 -0.158 c 0.094 -0.051 0.199 -0.094 0.32 -0.129 c 0.121 -0.039 0.256 -0.059 0.404 -0.059 z" style="fill:#ececec;fill-opacity:1"/>
</svg>
